src/frontend/src/assets/imgs/exclamationDark.svg

<?xml version="1.0"?>
<svg xmlns="http://www.w3.org/2000/svg" width="35" height="156" viewBox="0 0 35 156" fill="#121113">
<path d="M31.5062 60.5022C30.7957 67.5001 30.1766 73.726 29.6257 79.2659C27.6505 99.1288 26.5525 110.171 25.2606 116.347C24.4221 120.355 23.5786 121.84 22.7708 122.472C21.9809 123.09 20.9407 123.154 18.4986 123.154C16.0872 123.154 14.8864 123.102 13.9214 122.425C12.9652 121.755 11.9517 120.23 10.9072 116.271C8.83324 108.41 6.99866 92.5663 3.48966 60.4907C1.74407 44.5343 1.33897 32.8976 1.83887 24.4212C2.34015 15.9216 3.74548 10.7273 5.51535 7.55829C7.23565 4.47803 9.31416 3.27951 11.4346 2.78111C13.1597 2.37565 14.8748 2.42084 16.6776 2.46833C17.2738 2.48404 17.8796 2.5 18.4986 2.5C19.0597 2.5 19.6283 2.48421 20.1779 2.46896L20.276 2.46624C20.8638 2.44998 21.4324 2.43529 21.9967 2.43823C23.1272 2.4441 24.173 2.5216 25.1474 2.77324C26.9833 3.24741 28.7776 4.38858 30.249 7.47276C31.7675 10.6558 32.9172 15.8715 33.2572 24.3927C33.5961 32.8866 33.1273 44.5375 31.5062 60.5022Z" stroke="#121113" stroke-width="3"/>
<circle cx="18" cy="144" r="10.5" stroke="#121113" stroke-width="3"/>
</svg>

<svg xmlns="http://www.w3.org/2000/svg" width="35" height="156" fill="#121113" stroke="#121113" stroke-width="3" xmlns:v="https://vecta.io/nano"><path d="M31.506 60.502l-1.881 18.764c-1.975 19.863-3.073 30.905-4.365 37.081-.838 4.008-1.682 5.493-2.49 6.125-.79.618-1.83.682-4.272.682-2.411 0-3.612-.052-4.577-.729-.956-.67-1.97-2.195-3.014-6.154-2.074-7.861-3.909-23.705-7.418-55.78-1.746-15.956-2.151-27.593-1.651-36.069.501-8.5 1.907-13.694 3.676-16.863 1.72-3.08 3.799-4.279 5.919-4.777 1.725-.405 3.44-.36 5.243-.313l1.821.032c.561 0 1.13-.016 1.679-.031l.098-.003 1.721-.028c1.13.006 2.176.083 3.151.335 1.836.474 3.63 1.615 5.102 4.7 1.518 3.183 2.668 8.399 3.008 16.92.339 8.494-.13 20.145-1.751 36.11z"/><circle cx="18" cy="144" r="10.5"/></svg>
